public/icons/circle-left.svg

<svg width="32" height="32" viewBox="0 0 32 32" fill="none" xmlns="http://www.w3.org/2000/svg">
<path d="M16 32C24.837 32 32 24.837 32 16C32 7.163 24.837 0 16 0C7.163 0 0 7.163 0 16C0 24.837 7.163 32 16 32ZM16 3C23.18 3 29 8.82 29 16C29 23.18 23.18 29 16 29C8.82 29 3 23.18 3 16C3 8.82 8.82 3 16 3Z" fill="#212B5A"/>
<path d="M20.9139 9.91399L18.0849 7.08499L9.1709 15.999L18.0849 24.913L20.9129 22.085L14.8269 15.999L20.9139 9.91399Z" fill="#212B5A"/>
</svg>

<!-- Generated by IcoMoon.io -->
<svg version="1.1" xmlns="http://www.w3.org/2000/svg" width="32" height="32" viewBox="0 0 32 32">
<title>circle-left</title>
<path d="M16 32c8.837 0 16-7.163 16-16s-7.163-16-16-16-16 7.163-16 16 7.163 16 16 16zM16 3c7.18 0 13 5.82 13 13s-5.82 13-13 13-13-5.82-13-13 5.82-13 13-13z"></path>
<path d="M20.914 9.914l-2.829-2.829-8.914 8.914 8.914 8.914 2.828-2.828-6.086-6.086z"></path>
</svg>
